src/assets/explain.svg

<svg width="16" height="16" viewBox="0 0 16 16" fill="none" xmlns="http://www.w3.org/2000/svg">
<g opacity="0.5" clip-path="url(#clip0_1_853)">
<path d="M7.33337 10H8.66671V11.3334H7.33337V10ZM7.33337 4.66671H8.66671V8.66671H7.33337V4.66671ZM7.99337 1.33337C4.31337 1.33337 1.33337 4.32004 1.33337 8.00004C1.33337 11.68 4.31337 14.6667 7.99337 14.6667C11.68 14.6667 14.6667 11.68 14.6667 8.00004C14.6667 4.32004 11.68 1.33337 7.99337 1.33337ZM8.00004 13.3334C5.05337 13.3334 2.66671 10.9467 2.66671 8.00004C2.66671 5.05337 5.05337 2.66671 8.00004 2.66671C10.9467 2.66671 13.3334 5.05337 13.3334 8.00004C13.3334 10.9467 10.9467 13.3334 8.00004 13.3334Z" fill="black"/>
</g>
<defs>
<clipPath id="clip0_1_853">
<rect width="16" height="16" fill="white"/>
</clipPath>
</defs>
</svg>

<svg xmlns="http://www.w3.org/2000/svg" width="16" height="16" fill="none"><g clip-path="url(#a)" opacity=".5"><path fill="#000" d="M7.333 10h1.334v1.333H7.333V10Zm0-5.333h1.334v4H7.333v-4Zm.66-3.334A6.663 6.663 0 0 0 1.333 8c0 3.68 2.98 6.667 6.66 6.667A6.67 6.67 0 0 0 14.667 8a6.67 6.67 0 0 0-6.674-6.667Zm.007 12A5.332 5.332 0 0 1 2.667 8 5.332 5.332 0 0 1 8 2.667 5.332 5.332 0 0 1 13.333 8 5.332 5.332 0 0 1 8 13.333Z"/></g><defs><clipPath id="a"><path fill="#fff" d="M0 0h16v16H0z"/></clipPath></defs></svg>
